Newaita-dark/apps/48/internet-chat.svg

<svg height="48pt" viewBox="0 0 48 48" width="48pt" xmlns="http://www.w3.org/2000/svg" xmlns:xlink="http://www.w3.org/1999/xlink"><linearGradient id="a"><stop offset="0" stop-opacity=".313726"/><stop offset=".222222" stop-opacity=".27451"/><stop offset="1" stop-opacity="0"/></linearGradient><radialGradient id="b" cx="450.908936" cy="189.579361" gradientTransform="matrix(.00000016 -.117199 -.126575 -.00000015 62.893328 97.377561)" gradientUnits="userSpaceOnUse" r="21.166656" xlink:href="#a"/><radialGradient id="c" cx="450.908936" cy="189.579361" gradientTransform="matrix(-.00000016 .117199 .126575 .00000015 14.306241 -9.306657)" gradientUnits="userSpaceOnUse" r="21.166656" xlink:href="#a"/><radialGradient id="d" cx="450.908936" cy="189.579361" gradientTransform="matrix(-.00000016 -.117199 .126575 -.00000015 14.306241 97.377561)" gradientUnits="userSpaceOnUse" r="21.166656" xlink:href="#a"/><radialGradient id="e" cx="450.908936" cy="189.579361" gradientTransform="matrix(.00000016 .117199 -.126575 .00000015 62.893326 -9.306657)" gradientUnits="userSpaceOnUse" r="21.166656" xlink:href="#a"/><linearGradient id="f" gradientTransform="matrix(.00331698 0 0 .093759 37.171196 22.142742)" gradientUnits="userSpaceOnUse" x1="255.323059" x2="255.323044" y1="233.5" y2="254.666656"><stop offset="0" stop-opacity=".27451"/><stop offset="1" stop-opacity="0"/></linearGradient><linearGradient id="g"><stop offset="0" stop-color="#26a69a"/><stop offset="1" stop-color="#4db6ac"/></linearGradient><linearGradient id="h" gradientUnits="userSpaceOnUse" x1="370.416656" x2="370.416656" xlink:href="#g" y1="254.666672" y2="-168.666656"/><linearGradient id="i" gradientUnits="userSpaceOnUse" x1="23.814786" x2="23.814786" xlink:href="#g" y1="44.03546750005" y2="4.34415649995"/><linearGradient id="j"><stop offset="0" stop-color="#bdbdbd"/><stop offset="1" stop-color="#e0e0e0"/></linearGradient><linearGradient id="k" gradientUnits="userSpaceOnUse" x1="10.9048425" x2="10.9048425" xlink:href="#j" y1="30.51560921856" y2="24.56191525005"/><linearGradient id="l" gradientUnits="userSpaceOnUse" x1="18.8533715" x2="18.8533715" xlink:href="#j" y1="30.51560921856" y2="24.56191525005"/><linearGradient id="m" gradientUnits="userSpaceOnUse" x1="26.7916305" x2="26.7916305" xlink:href="#j" y1="30.51560921856" y2="24.56191525005"/><path d="m39.195312 44.035156h2.382813v-1.984375h-2.382813zm0 0" fill="url(#b)"/><path d="m38.003906 44.035156h-2.382812v1.984375h2.382812zm0 0" fill="url(#c)"/><path d="m38.003906 44.035156h-2.382812v-1.984375h2.382812zm0 0" fill="url(#d)"/><path d="m39.195312 44.035156h2.382813v1.984375h-2.382813zm0 0" fill="url(#e)"/><path d="m38.003906 44.035156h1.191406v1.984375h-1.191406zm0 0" fill="url(#f)"/><path d="m306.929023 138.341258c-9.624081 0-14.206977 11.873866-7.040994 18.28992l105.823228 95.240905c6.791018 6.082752 17.539991 1.291543 17.539991-7.790923v-95.240905c0-5.791114-4.707884-10.498997-10.498997-10.498997zm0 0" fill="url(#h)" stroke="#212121" stroke-linecap="round" stroke-linejoin="round" stroke-width="3" transform="matrix(.093759 0 0 .093759 0 20.158175)"/><path d="m27.875 33.714844c-.15625.363281-.105469.816406.242188 1.128906l9.921874 8.929688c.636719.570312 1.644532.121093 1.644532-.730469v-.800781c0 .851562-1.007813 1.300781-1.644532.730468l-9.921874-8.929687c-.109376-.097657-.1875-.210938-.242188-.328125zm0 0" fill-opacity=".235294"/><path d="m6.945312 4.34375h33.738282c1.644531 0 2.976562 1.332031 2.976562 2.976562v25.800782c0 1.644531-1.332031 2.976562-2.976562 2.976562h-33.738282c-1.644531 0-2.976562-1.332031-2.976562-2.976562v-25.800782c0-1.644531 1.332031-2.976562 2.976562-2.976562zm0 0" fill="url(#i)"/><path d="m10.90625 24.5625c1.644531 0 2.976562 1.332031 2.976562 2.976562 0 1.644532-1.332031 2.976563-2.976562 2.976563s-2.976562-1.332031-2.976562-2.976563c0-1.644531 1.332031-2.976562 2.976562-2.976562zm0 0" fill="url(#k)"/><path d="m10.90625 24.5625c-1.652344 0-2.976562 1.328125-2.976562 2.976562 0 .082032 0 .164063.007812.246094.125-1.53125 1.402344-2.726562 2.96875-2.726562 1.5625 0 2.839844 1.195312 2.964844 2.726562.007812-.082031.011718-.164062.011718-.246094 0-1.648437-1.328124-2.976562-2.976562-2.976562zm0 0" fill="#fff" fill-opacity=".392157"/><path d="m10.90625 31.136719c-1.652344 0-2.976562-1.328125-2.976562-2.976563 0-.085937 0-.167968.007812-.25.125 1.53125 1.402344 2.730469 2.96875 2.730469 1.5625 0 2.839844-1.199219 2.964844-2.730469.007812.082032.011718.164063.011718.25 0 1.648438-1.328124 2.976563-2.976562 2.976563zm0 0" fill-opacity=".235294"/><path d="m10.90625 24.421875c-1.726562 0-3.117188 1.390625-3.117188 3.117187 0 1.722657 1.390626 3.117188 3.117188 3.117188 1.722656 0 3.117188-1.394531 3.117188-3.117188 0-1.726562-1.394532-3.117187-3.117188-3.117187zm0 .28125c1.574219 0 2.835938 1.261719 2.835938 2.835937 0 1.574219-1.261719 2.835938-2.835938 2.835938s-2.835938-1.261719-2.835938-2.835938c0-1.574218 1.261719-2.835937 2.835938-2.835937zm0 0" fill="#212121"/><path d="m6.945312 4.34375c-1.648437 0-2.976562 1.328125-2.976562 2.976562v.746094c0-1.648437 1.328125-2.976562 2.976562-2.976562h33.738282c1.648437 0 2.976562 1.328125 2.976562 2.976562v-.746094c0-1.648437-1.328125-2.976562-2.976562-2.976562zm0 0" fill="#fff" fill-opacity=".392157"/><path d="m6.945312 36.097656c-1.648437 0-2.976562-1.328125-2.976562-2.976562v-.746094c0 1.648438 1.328125 2.976562 2.976562 2.976562h33.738282c1.648437 0 2.976562-1.328124 2.976562-2.976562v.746094c0 1.648437-1.328125 2.976562-2.976562 2.976562zm0 0" fill-opacity=".235294"/><path d="m74.076259-168.671091h359.840637c17.539992 0 31.746969 14.206977 31.746969 31.746968v275.182055c0 17.539992-14.206977 31.746969-31.746969 31.746969h-359.840637c-17.539991 0-31.746968-14.206977-31.746968-31.746969v-275.182055c0-17.539991 14.206977-31.746968 31.746968-31.746968zm0 0" fill="none" stroke="#212121" stroke-linecap="round" stroke-linejoin="round" stroke-width="3" transform="matrix(.093759 0 0 .093759 0 20.158175)"/><path d="m29.515625 36.097656.828125.742188h9.347656v-.742188zm0 0" fill-opacity=".235294"/><path d="m18.851562 24.5625c1.644532 0 2.980469 1.332031 2.980469 2.976562 0 1.644532-1.335937 2.976563-2.980469 2.976563-1.640624 0-2.976562-1.332031-2.976562-2.976563 0-1.644531 1.335938-2.976562 2.976562-2.976562zm0 0" fill="url(#l)"/><path d="m18.851562 24.5625c-1.648437 0-2.976562 1.328125-2.976562 2.976562 0 .082032.003906.164063.011719.246094.125-1.53125 1.402343-2.726562 2.964843-2.726562 1.566407 0 2.84375 1.195312 2.96875 2.726562.007813-.082031.011719-.164062.011719-.246094 0-1.648437-1.328125-2.976562-2.980469-2.976562zm0 0" fill="#fff" fill-opacity=".392157"/><path d="m18.851562 31.136719c-1.648437 0-2.976562-1.328125-2.976562-2.976563 0-.085937.003906-.167968.011719-.25.125 1.53125 1.402343 2.730469 2.964843 2.730469 1.566407 0 2.84375-1.199219 2.96875-2.730469.007813.082032.011719.164063.011719.25 0 1.648438-1.328125 2.976563-2.980469 2.976563zm0 0" fill-opacity=".235294"/><path d="m18.851562 24.421875c-1.722656 0-3.117187 1.390625-3.117187 3.117187 0 1.722657 1.394531 3.117188 3.117187 3.117188 1.726563 0 3.121094-1.394531 3.121094-3.117188 0-1.726562-1.394531-3.117187-3.121094-3.117187zm0 .28125c1.574219 0 2.839844 1.261719 2.839844 2.835937 0 1.574219-1.265625 2.835938-2.839844 2.835938-1.570312 0-2.835937-1.261719-2.835937-2.835938 0-1.574218 1.265625-2.835937 2.835937-2.835937zm0 0" fill="#212121"/><path d="m26.792969 24.5625c1.644531 0 2.976562 1.332031 2.976562 2.976562 0 1.644532-1.332031 2.976563-2.976562 2.976563s-2.976563-1.332031-2.976563-2.976563c0-1.644531 1.332032-2.976562 2.976563-2.976562zm0 0" fill="url(#m)"/><path d="m26.792969 24.5625c-1.652344 0-2.976563 1.328125-2.976563 2.976562 0 .082032 0 .164063.007813.246094.125-1.53125 1.402343-2.726562 2.96875-2.726562 1.5625 0 2.839843 1.195312 2.964843 2.726562.007813-.082031.011719-.164062.011719-.246094 0-1.648437-1.328125-2.976562-2.976562-2.976562zm0 0" fill="#fff" fill-opacity=".392157"/><path d="m26.792969 31.136719c-1.652344 0-2.976563-1.328125-2.976563-2.976563 0-.085937 0-.167968.007813-.25.125 1.53125 1.402343 2.730469 2.96875 2.730469 1.5625 0 2.839843-1.199219 2.964843-2.730469.007813.082032.011719.164063.011719.25 0 1.648438-1.328125 2.976563-2.976562 2.976563zm0 0" fill-opacity=".235294"/><path d="m26.792969 24.421875c-1.726563 0-3.117188 1.390625-3.117188 3.117187 0 1.722657 1.390625 3.117188 3.117188 3.117188 1.722656 0 3.117187-1.394531 3.117187-3.117188 0-1.726562-1.394531-3.117187-3.117187-3.117187zm0 .28125c1.574219 0 2.835937 1.261719 2.835937 2.835937 0 1.574219-1.261718 2.835938-2.835937 2.835938s-2.835938-1.261719-2.835938-2.835938c0-1.574218 1.261719-2.835937 2.835938-2.835937zm0 0" fill="#212121"/></svg>

<?xml version="1.0" encoding="UTF-8"?>
<svg xmlns="http://www.w3.org/2000/svg" xmlns:xlink="http://www.w3.org/1999/xlink" width="48pt" height="48pt" viewBox="0 0 48 48" version="1.1">
<defs>
<radialGradient id="radial0" gradientUnits="userSpaceOnUse" cx="450.908936" cy="189.579361" fx="450.908936" fy="189.579361" r="21.166656" gradientTransform="matrix(0.000000156753,-0.117199,-0.126575,-0.000000152308,62.893328,97.377561)">
<stop offset="0" style="stop-color:rgb(0%,0%,0%);stop-opacity:0.313726;"/>
<stop offset="0.222222" style="stop-color:rgb(0%,0%,0%);stop-opacity:0.27451;"/>
<stop offset="1" style="stop-color:rgb(0%,0%,0%);stop-opacity:0;"/>
</radialGradient>
<radialGradient id="radial1" gradientUnits="userSpaceOnUse" cx="450.908936" cy="189.579361" fx="450.908936" fy="189.579361" r="21.166656" gradientTransform="matrix(-0.000000156753,0.117199,0.126575,0.000000152308,14.306241,-9.306657)">
<stop offset="0" style="stop-color:rgb(0%,0%,0%);stop-opacity:0.313726;"/>
<stop offset="0.222222" style="stop-color:rgb(0%,0%,0%);stop-opacity:0.27451;"/>
<stop offset="1" style="stop-color:rgb(0%,0%,0%);stop-opacity:0;"/>
</radialGradient>
<radialGradient id="radial2" gradientUnits="userSpaceOnUse" cx="450.908936" cy="189.579361" fx="450.908936" fy="189.579361" r="21.166656" gradientTransform="matrix(-0.000000156753,-0.117199,0.126575,-0.000000152308,14.306241,97.377561)">
<stop offset="0" style="stop-color:rgb(0%,0%,0%);stop-opacity:0.313726;"/>
<stop offset="0.222222" style="stop-color:rgb(0%,0%,0%);stop-opacity:0.27451;"/>
<stop offset="1" style="stop-color:rgb(0%,0%,0%);stop-opacity:0;"/>
</radialGradient>
<radialGradient id="radial3" gradientUnits="userSpaceOnUse" cx="450.908936" cy="189.579361" fx="450.908936" fy="189.579361" r="21.166656" gradientTransform="matrix(0.000000156753,0.117199,-0.126575,0.000000152308,62.893326,-9.306657)">
<stop offset="0" style="stop-color:rgb(0%,0%,0%);stop-opacity:0.313726;"/>
<stop offset="0.222222" style="stop-color:rgb(0%,0%,0%);stop-opacity:0.27451;"/>
<stop offset="1" style="stop-color:rgb(0%,0%,0%);stop-opacity:0;"/>
</radialGradient>
<linearGradient id="linear0" gradientUnits="userSpaceOnUse" x1="255.323059" y1="233.5" x2="255.323044" y2="254.666656" gradientTransform="matrix(0.00331698,0,0,0.093759,37.171196,22.142742)">
<stop offset="0" style="stop-color:rgb(0%,0%,0%);stop-opacity:0.27451;"/>
<stop offset="1" style="stop-color:rgb(0%,0%,0%);stop-opacity:0;"/>
</linearGradient>
<linearGradient id="linear1" gradientUnits="userSpaceOnUse" x1="370.416656" y1="254.666672" x2="370.416656" y2="-168.666656" gradientTransform="matrix(1,0,0,1,0,0)">
<stop offset="0" style="stop-color:rgb(14.901961%,65.098041%,60.392159%);stop-opacity:1;"/>
<stop offset="1" style="stop-color:rgb(30.19608%,71.372551%,67.450982%);stop-opacity:1;"/>
</linearGradient>
<linearGradient id="linear2" gradientUnits="userSpaceOnUse" x1="254" y1="254.666672" x2="254" y2="-168.666672" gradientTransform="matrix(0.093759,0,0,0.093759,0,20.158175)">
<stop offset="0" style="stop-color:rgb(14.901961%,65.098041%,60.392159%);stop-opacity:1;"/>
<stop offset="1" style="stop-color:rgb(30.19608%,71.372551%,67.450982%);stop-opacity:1;"/>
</linearGradient>
<linearGradient id="linear3" gradientUnits="userSpaceOnUse" x1="190.5" y1="32.416645" x2="190.5" y2="-31.083328" gradientTransform="matrix(0.093759,0,0,0.093759,-6.956247,27.476257)">
<stop offset="0" style="stop-color:rgb(74.117649%,74.117649%,74.117649%);stop-opacity:1;"/>
<stop offset="1" style="stop-color:rgb(87.843138%,87.843138%,87.843138%);stop-opacity:1;"/>
</linearGradient>
<linearGradient id="linear4" gradientUnits="userSpaceOnUse" x1="190.5" y1="32.416645" x2="190.5" y2="-31.083328" gradientTransform="matrix(0.093759,0,0,0.093759,0.992282,27.476257)">
<stop offset="0" style="stop-color:rgb(74.117649%,74.117649%,74.117649%);stop-opacity:1;"/>
<stop offset="1" style="stop-color:rgb(87.843138%,87.843138%,87.843138%);stop-opacity:1;"/>
</linearGradient>
<linearGradient id="linear5" gradientUnits="userSpaceOnUse" x1="190.5" y1="32.416645" x2="190.5" y2="-31.083328" gradientTransform="matrix(0.093759,0,0,0.093759,8.930541,27.476257)">
<stop offset="0" style="stop-color:rgb(74.117649%,74.117649%,74.117649%);stop-opacity:1;"/>
<stop offset="1" style="stop-color:rgb(87.843138%,87.843138%,87.843138%);stop-opacity:1;"/>
</linearGradient>
</defs>
<g id="surface1">
<path style=" stroke:none;fill-rule:nonzero;fill:url(#radial0);" d="M 39.195312 44.035156 L 41.578125 44.035156 L 41.578125 42.050781 L 39.195312 42.050781 Z M 39.195312 44.035156 "/>
<path style=" stroke:none;fill-rule:nonzero;fill:url(#radial1);" d="M 38.003906 44.035156 L 35.621094 44.035156 L 35.621094 46.019531 L 38.003906 46.019531 Z M 38.003906 44.035156 "/>
<path style=" stroke:none;fill-rule:nonzero;fill:url(#radial2);" d="M 38.003906 44.035156 L 35.621094 44.035156 L 35.621094 42.050781 L 38.003906 42.050781 Z M 38.003906 44.035156 "/>
<path style=" stroke:none;fill-rule:nonzero;fill:url(#radial3);" d="M 39.195312 44.035156 L 41.578125 44.035156 L 41.578125 46.019531 L 39.195312 46.019531 Z M 39.195312 44.035156 "/>
<path style=" stroke:none;fill-rule:nonzero;fill:url(#linear0);" d="M 38.003906 44.035156 L 39.195312 44.035156 L 39.195312 46.019531 L 38.003906 46.019531 Z M 38.003906 44.035156 "/>
<path style="fill-rule:nonzero;fill:url(#linear1);stroke-width:3;stroke-linecap:round;stroke-linejoin:round;stroke:rgb(12.941177%,12.941177%,12.941177%);stroke-opacity:1;stroke-miterlimit:4;" d="M 306.929023 138.341258 C 297.304942 138.341258 292.722046 150.215124 299.888029 156.631178 L 405.711257 251.872083 C 412.502275 257.954835 423.251248 253.163626 423.251248 244.08116 L 423.251248 148.840255 C 423.251248 143.049141 418.543364 138.341258 412.752251 138.341258 Z M 306.929023 138.341258 " transform="matrix(0.093759,0,0,0.093759,0,20.158175)"/>
<path style=" stroke:none;fill-rule:nonzero;fill:rgb(0%,0%,0%);fill-opacity:0.235294;" d="M 27.875 33.714844 C 27.71875 34.078125 27.769531 34.53125 28.117188 34.84375 L 38.039062 43.773438 C 38.675781 44.34375 39.683594 43.894531 39.683594 43.042969 L 39.683594 42.242188 C 39.683594 43.09375 38.675781 43.542969 38.039062 42.972656 L 28.117188 34.042969 C 28.007812 33.945312 27.929688 33.832031 27.875 33.714844 Z M 27.875 33.714844 "/>
<path style=" stroke:none;fill-rule:nonzero;fill:url(#linear2);" d="M 6.945312 4.34375 L 40.683594 4.34375 C 42.328125 4.34375 43.660156 5.675781 43.660156 7.320312 L 43.660156 33.121094 C 43.660156 34.765625 42.328125 36.097656 40.683594 36.097656 L 6.945312 36.097656 C 5.300781 36.097656 3.96875 34.765625 3.96875 33.121094 L 3.96875 7.320312 C 3.96875 5.675781 5.300781 4.34375 6.945312 4.34375 Z M 6.945312 4.34375 "/>
<path style=" stroke:none;fill-rule:nonzero;fill:url(#linear3);" d="M 10.90625 24.5625 C 12.550781 24.5625 13.882812 25.894531 13.882812 27.539062 C 13.882812 29.183594 12.550781 30.515625 10.90625 30.515625 C 9.261719 30.515625 7.929688 29.183594 7.929688 27.539062 C 7.929688 25.894531 9.261719 24.5625 10.90625 24.5625 Z M 10.90625 24.5625 "/>
<path style=" stroke:none;fill-rule:nonzero;fill:rgb(100%,100%,100%);fill-opacity:0.392157;" d="M 10.90625 24.5625 C 9.253906 24.5625 7.929688 25.890625 7.929688 27.539062 C 7.929688 27.621094 7.929688 27.703125 7.9375 27.785156 C 8.0625 26.253906 9.339844 25.058594 10.90625 25.058594 C 12.46875 25.058594 13.746094 26.253906 13.871094 27.785156 C 13.878906 27.703125 13.882812 27.621094 13.882812 27.539062 C 13.882812 25.890625 12.554688 24.5625 10.90625 24.5625 Z M 10.90625 24.5625 "/>
<path style=" stroke:none;fill-rule:nonzero;fill:rgb(0%,0%,0%);fill-opacity:0.235294;" d="M 10.90625 31.136719 C 9.253906 31.136719 7.929688 29.808594 7.929688 28.160156 C 7.929688 28.074219 7.929688 27.992188 7.9375 27.910156 C 8.0625 29.441406 9.339844 30.640625 10.90625 30.640625 C 12.46875 30.640625 13.746094 29.441406 13.871094 27.910156 C 13.878906 27.992188 13.882812 28.074219 13.882812 28.160156 C 13.882812 29.808594 12.554688 31.136719 10.90625 31.136719 Z M 10.90625 31.136719 "/>
<path style=" stroke:none;fill-rule:nonzero;fill:rgb(12.941177%,12.941177%,12.941177%);fill-opacity:1;" d="M 10.90625 24.421875 C 9.179688 24.421875 7.789062 25.8125 7.789062 27.539062 C 7.789062 29.261719 9.179688 30.65625 10.90625 30.65625 C 12.628906 30.65625 14.023438 29.261719 14.023438 27.539062 C 14.023438 25.8125 12.628906 24.421875 10.90625 24.421875 Z M 10.90625 24.703125 C 12.480469 24.703125 13.742188 25.964844 13.742188 27.539062 C 13.742188 29.113281 12.480469 30.375 10.90625 30.375 C 9.332031 30.375 8.070312 29.113281 8.070312 27.539062 C 8.070312 25.964844 9.332031 24.703125 10.90625 24.703125 Z M 10.90625 24.703125 "/>
<path style=" stroke:none;fill-rule:nonzero;fill:rgb(100%,100%,100%);fill-opacity:0.392157;" d="M 6.945312 4.34375 C 5.296875 4.34375 3.96875 5.671875 3.96875 7.320312 L 3.96875 8.066406 C 3.96875 6.417969 5.296875 5.089844 6.945312 5.089844 L 40.683594 5.089844 C 42.332031 5.089844 43.660156 6.417969 43.660156 8.066406 L 43.660156 7.320312 C 43.660156 5.671875 42.332031 4.34375 40.683594 4.34375 Z M 6.945312 4.34375 "/>
<path style=" stroke:none;fill-rule:nonzero;fill:rgb(0%,0%,0%);fill-opacity:0.235294;" d="M 6.945312 36.097656 C 5.296875 36.097656 3.96875 34.769531 3.96875 33.121094 L 3.96875 32.375 C 3.96875 34.023438 5.296875 35.351562 6.945312 35.351562 L 40.683594 35.351562 C 42.332031 35.351562 43.660156 34.023438 43.660156 32.375 L 43.660156 33.121094 C 43.660156 34.769531 42.332031 36.097656 40.683594 36.097656 Z M 6.945312 36.097656 "/>
<path style="fill:none;stroke-width:3;stroke-linecap:round;stroke-linejoin:round;stroke:rgb(12.941177%,12.941177%,12.941177%);stroke-opacity:1;stroke-miterlimit:4;" d="M 74.076259 -168.671091 L 433.916896 -168.671091 C 451.456888 -168.671091 465.663865 -154.464114 465.663865 -136.924123 L 465.663865 138.257932 C 465.663865 155.797924 451.456888 170.004901 433.916896 170.004901 L 74.076259 170.004901 C 56.536268 170.004901 42.329291 155.797924 42.329291 138.257932 L 42.329291 -136.924123 C 42.329291 -154.464114 56.536268 -168.671091 74.076259 -168.671091 Z M 74.076259 -168.671091 " transform="matrix(0.093759,0,0,0.093759,0,20.158175)"/>
<path style=" stroke:none;fill-rule:nonzero;fill:rgb(0%,0%,0%);fill-opacity:0.235294;" d="M 29.515625 36.097656 L 30.34375 36.839844 L 39.691406 36.839844 L 39.691406 36.097656 Z M 29.515625 36.097656 "/>
<path style=" stroke:none;fill-rule:nonzero;fill:url(#linear4);" d="M 18.851562 24.5625 C 20.496094 24.5625 21.832031 25.894531 21.832031 27.539062 C 21.832031 29.183594 20.496094 30.515625 18.851562 30.515625 C 17.210938 30.515625 15.875 29.183594 15.875 27.539062 C 15.875 25.894531 17.210938 24.5625 18.851562 24.5625 Z M 18.851562 24.5625 "/>
<path style=" stroke:none;fill-rule:nonzero;fill:rgb(100%,100%,100%);fill-opacity:0.392157;" d="M 18.851562 24.5625 C 17.203125 24.5625 15.875 25.890625 15.875 27.539062 C 15.875 27.621094 15.878906 27.703125 15.886719 27.785156 C 16.011719 26.253906 17.289062 25.058594 18.851562 25.058594 C 20.417969 25.058594 21.695312 26.253906 21.820312 27.785156 C 21.828125 27.703125 21.832031 27.621094 21.832031 27.539062 C 21.832031 25.890625 20.503906 24.5625 18.851562 24.5625 Z M 18.851562 24.5625 "/>
<path style=" stroke:none;fill-rule:nonzero;fill:rgb(0%,0%,0%);fill-opacity:0.235294;" d="M 18.851562 31.136719 C 17.203125 31.136719 15.875 29.808594 15.875 28.160156 C 15.875 28.074219 15.878906 27.992188 15.886719 27.910156 C 16.011719 29.441406 17.289062 30.640625 18.851562 30.640625 C 20.417969 30.640625 21.695312 29.441406 21.820312 27.910156 C 21.828125 27.992188 21.832031 28.074219 21.832031 28.160156 C 21.832031 29.808594 20.503906 31.136719 18.851562 31.136719 Z M 18.851562 31.136719 "/>
<path style=" stroke:none;fill-rule:nonzero;fill:rgb(12.941177%,12.941177%,12.941177%);fill-opacity:1;" d="M 18.851562 24.421875 C 17.128906 24.421875 15.734375 25.8125 15.734375 27.539062 C 15.734375 29.261719 17.128906 30.65625 18.851562 30.65625 C 20.578125 30.65625 21.972656 29.261719 21.972656 27.539062 C 21.972656 25.8125 20.578125 24.421875 18.851562 24.421875 Z M 18.851562 24.703125 C 20.425781 24.703125 21.691406 25.964844 21.691406 27.539062 C 21.691406 29.113281 20.425781 30.375 18.851562 30.375 C 17.28125 30.375 16.015625 29.113281 16.015625 27.539062 C 16.015625 25.964844 17.28125 24.703125 18.851562 24.703125 Z M 18.851562 24.703125 "/>
<path style=" stroke:none;fill-rule:nonzero;fill:url(#linear5);" d="M 26.792969 24.5625 C 28.4375 24.5625 29.769531 25.894531 29.769531 27.539062 C 29.769531 29.183594 28.4375 30.515625 26.792969 30.515625 C 25.148438 30.515625 23.816406 29.183594 23.816406 27.539062 C 23.816406 25.894531 25.148438 24.5625 26.792969 24.5625 Z M 26.792969 24.5625 "/>
<path style=" stroke:none;fill-rule:nonzero;fill:rgb(100%,100%,100%);fill-opacity:0.392157;" d="M 26.792969 24.5625 C 25.140625 24.5625 23.816406 25.890625 23.816406 27.539062 C 23.816406 27.621094 23.816406 27.703125 23.824219 27.785156 C 23.949219 26.253906 25.226562 25.058594 26.792969 25.058594 C 28.355469 25.058594 29.632812 26.253906 29.757812 27.785156 C 29.765625 27.703125 29.769531 27.621094 29.769531 27.539062 C 29.769531 25.890625 28.441406 24.5625 26.792969 24.5625 Z M 26.792969 24.5625 "/>
<path style=" stroke:none;fill-rule:nonzero;fill:rgb(0%,0%,0%);fill-opacity:0.235294;" d="M 26.792969 31.136719 C 25.140625 31.136719 23.816406 29.808594 23.816406 28.160156 C 23.816406 28.074219 23.816406 27.992188 23.824219 27.910156 C 23.949219 29.441406 25.226562 30.640625 26.792969 30.640625 C 28.355469 30.640625 29.632812 29.441406 29.757812 27.910156 C 29.765625 27.992188 29.769531 28.074219 29.769531 28.160156 C 29.769531 29.808594 28.441406 31.136719 26.792969 31.136719 Z M 26.792969 31.136719 "/>
<path style=" stroke:none;fill-rule:nonzero;fill:rgb(12.941177%,12.941177%,12.941177%);fill-opacity:1;" d="M 26.792969 24.421875 C 25.066406 24.421875 23.675781 25.8125 23.675781 27.539062 C 23.675781 29.261719 25.066406 30.65625 26.792969 30.65625 C 28.515625 30.65625 29.910156 29.261719 29.910156 27.539062 C 29.910156 25.8125 28.515625 24.421875 26.792969 24.421875 Z M 26.792969 24.703125 C 28.367188 24.703125 29.628906 25.964844 29.628906 27.539062 C 29.628906 29.113281 28.367188 30.375 26.792969 30.375 C 25.21875 30.375 23.957031 29.113281 23.957031 27.539062 C 23.957031 25.964844 25.21875 24.703125 26.792969 24.703125 Z M 26.792969 24.703125 "/>
</g>
</svg>
